X:1
T:Alla guerra
T:Alla guerra
T:Sigismondo d'India
T:Source : Le Musische a 2 voci di S.d'India---Libro II---Venetia---R.Amadino---1615. Editor : André Vierendeels (09/08/15).
T:Notes : Original clefs : C1, C1, F4 Editorial accidentals above the staff Note values have been halved
C:Sigismondo d'India
%%score [ 1 2 ] 3
L:1/8
Q:1/4=70
M:3/4
K:C
V:1 treble nm="Soprano 1" snm="S 1"
V:2 treble nm="Soprano 2" snm="S 2"
V:3 bass nm="MusicXML Part"
V:1
 z6 | z2 G2 A2 | B2 G2 D2 | D2 d2 d2 | d2 c2 B2 | A6 | G6 | z2 G2 A2 | B2 G2 D2 | D2 d2 d2 | %10
w: |Al- la|guer- r'al- la|guer- r'al- la|guer- ra d'A-|mo-|re,|al- la|guer- r'al- la|guer- r'al- la|
w: |Al- l'ar-|ria- go'al- lar-|ria- go le|Da- me piu|bel-|le,|al- l'ar-|ria- go'al- lar-|ria- go le|
w: |E le|trom- bi'e- le|trom- bi'e le|dol- ci fe-|ri-|te,|E le|trom- bi'e le|trom- bi'e le|
w: |Qui le|ris- s'e le-|ris- s'e gl'as-|sal- ti son|pa-|ci,|qui le|ris- s'e le|ris- s'e gl'as-|
 d2 c2 B2 | A6 | G4 ^F2 | G6 |: z6 | z2 E2 F2 | G2 ^F2 E2 | ^F6 | ^F6 | z2 B2 c2 | d2 c2 d2 | %21
w: guer- ra d'A-|mo-||re.||Hor che|par che n'a-|pel-|le,|la sta-|gio- n'e di-|
w: Da- me piu|bel-||le.||Se ven-|ghi- no ar-|di-|te|o- ve|si gu- sta|
w: dol- ci fe-|ri-||te.||So- no|gl'ar- den- ti|ba-|ci,|on- de|si vi- ve,|
w: sal- ti son|pa-||ci.||Ed ha-|vic- to- ria'e-|gua-|le|co- s'il|vin- to co-|
 e2 f2 e2 | d6 | c2 B2 c2 | d2 B2 B2 | ^c2 c2 d2 | d4 ^c2 | d6 | z2 E2 F2 | G2 E2 E2 | ^F2 F2 G2 | %31
w: let- to del|co-|re,- al- la|guer- r'al- la|guer- ra d'A-|mo- *|re,|al- la|guer- r'al- la|guer- ra d'A-|
w: soa- ve'il do-|lo-|re, * *||||||||
w: con- ten- t'e'si|mo-|re, * *||||||||
w: m'il vin- ci-|to-|re, * *||||||||
 G4 ^F2 | G6 :| %33
w: mo- *|re.|
w: ||
w: ||
w: ||
V:2
 z2 G2 A2 | B2 G2 D2 | D2 d2 d2 | d2 c2 B2 | A2 G4- | G4 ^F2 | G6 | z6 | z2 G2 A2 | B2 G2 D2 | %10
w: Al- la|guer- r'al- la|guer- r'al- la|guer- ra- d'A-|mo- *||re,||al- la|guer- r'al- la|
w: Al- lar-|ria- go'al- lar-|ria- go le|Da- me piu|bel- *||le,||al- l'ar-|ria- go'al- lar-|
w: E qui|trom- bi'e le|trom- bi'e le|dol- ci fe-|ri- *||te,||e le|trom- bi'e le|
w: Qui le|rie- s'e le|ris- se gl'as-|sal- ti son|pa- *||ci,||qui le|ris- s'e le|
 D2 d2 d2 | d2 c2 B2 | A6 | G6 |: z2 A2 B2 | c2 B2 A2 | B6 | A6 | z2 ^F2 G2 | A2 G2 A2 | B2 A2 B2 | %21
w: guer- r'al- la|guer- ra d'A-|mo-|re.|Hor che|par che n'a-|pel-|le,|la sta-|gio- n'e di-|let- to del|
w: ria- go le|Da- me piu|bel-|le.|Se ven-|ghi- no ar-|di-|te|o- ve|si gu- sta|soa- ve'il do-|
w: trom- bi'e le|dol- ci fe-|ri-|te.|So- no|gl'ar- den- ti|ba-|ci,|on- de|si vi- ve|con- ten- t'e'si|
w: ris- s'e gl'as-|sal- ti son|pa-|ci.|Ed ha|vic- to- ria'e-|gua-|le|co- s'il|vin- to co-|m'il vin- ci-|
 c6- | c4 B2 | c6 |"^#" z2 G2 F2 |"^#" E2 F2 D2 | E6 | D6 | z6 | z2 B2 c2 | d2 c2 B2 | A6 | G6 :| %33
w: co-||re,|al- la|guer- ra d'A-|mo-|re,||al- la|guer- ra d'A-|mo-|re.|
w: lo-||re,||||||||||
w: mo-||re,||||||||||
w: to-||re,||||||||||
V:3
 G,,4 G,,2- | G,,2 G,,4 | G,,4 G,,2- | G,,2 G,,4 | D,6- | D,6 | G,,6 | G,,4 G,,2- | G,,2 G,,4 | %9
 G,,4 G,,2- | G,,2 G,,4 | D,6- | D,6 | G,,6 |: D,6 | A,,6 | E,2 B,,2 C,2 | D,6- | D,6 | G,,6- | %20
 G,,6 | F,,6 | G,,6 | C,6 | B,,6 | A,,6- | A,,6 | D,6 | A,,6 | E,6 | D,6 | D,,6 | G,,6 :| %33

